X:1
T:Op.59
T:Du bist die Ruh
T:3. Du bist die Ruh
T:Franz Schubert
T:Op.59, D.776
T:Friedrich Rückert
T:OpenScore (CC0)
T:OpenScore (CC0)
T:OpenScore (CC0)
T:OpenScore (CC0)
C:Franz Schubert
Z:Friedrich Rückert
Z:OpenScore (CC0)
%%score 1 { ( 2 4 6 7 ) | ( 3 5 ) }
L:1/8
Q:1/4=80
M:3/8
K:Eb
V:1 treble nm="Voice"
V:2 treble nm="Piano"
V:4 treble 
V:6 treble 
V:7 treble 
V:3 treble 
V:5 treble 
V:1
"^Langsam" z3 | z3 | z3 | z3 | z3 | z3 | z3 | B B3/2 B/ | c2 c | e2 d | e3 | B B3/2 B/ | c2 c | %13
w: |||||||Du bist die|Ruh, der|Frie- de|mild,|die Sehn- sucht|du, und|
 e2 d | e3 | c c3/2 c/ | (c2 B) | =A/B/ c/d/ e/>d/ | B2 z | c c3/2 c/ | (c2 B) | A/B/ c/d/ e/>d/ | %22
w: was sie|stillt.|Ich wei- he|dir *|voll * Lust * und *|Schmerz|zur Woh- nung|hier *|mein * Aug' * und *|
 (e2 G) | F/G/ A/=A/ B/>A/ | (B2 E) | z3 | z3 | z3 | z3 | z3 | B B3/2 B/ | c2 c | e2 d | e3 | %34
w: Herz, *|mein * Aug' * und *|Herz. *||||||Kehr' ein bei|mir, und|schlie- sse|du|
 B B3/2 B/ | c2 c | e2 d | e3 | c c3/2 c/ | (c2 B) | =A/B/ c/d/ e/>d/ | B3 | c c3/2 d/ | (c2 B) | %44
w: still hin- ter|dir die|Pfor- ten|zu.|Treib' an- dern|Schmerz *|aus * die- * ser *|Brust!|Voll sei dies|Herz *|
 _A/B/ c/d/ e/>d/ | (e2 G) | F/G/ A/=A/ B/>A/ | (B2 E) | z3 | z3 | z3 | z3 | z3 | B B3/2 B/ | %54
w: von * die- * ner *|Lust, *|von * dei- * ner *|Lust. *||||||Dies Au- gen-|
 _c2 c | _d2 d | e2 e | f2 f | (g3 | a3) | z3 | A/B/ c/d/ e/>d/ | (e2 G) | F/G/ A/=A/ B/>A/ | %64
w: zelt von|dei- nem|Glanz al-|lein er-|hellt,|||o * füll' * es *|ganz, *|o * füll' * es *|
 (B2 E) | z3 | z3 | B B3/2 B/ | _c2 c | _d2 d | e2 e | f2 f | (g3 | a3) | z3 | %75
w: ganz! *|||Dies Au- gen-|zelt von|dei- nem|Glanz al-|lein er-|hellt,|||
!pp! A/B/ c/d/ e/>d/ | (e2 G) | F/G/ A/=A/ B/>A/ | B3- | B2 z | z3 | z3 |] %82
w: o * füll' * es *|ganz, *|o * füll' * es *|ganz!||||
V:2
!pp! (G/B/G/B/G/B/ | G/c/G/c/G/c/) | (c/F/c/F/B/F/) | (e3 |!<(! [Beb]3)!<)! |!>(! b3-!>)! | %6
 b G/B/G/B/ |!pp! G/B/G/B/G/B/ | G/c/G/c/G/c/ | (e2 d | e3) | G/B/G/B/G/B/ | G/c/G/c/G/c/ | (e2 d | %14
 e3) | [_G=A]/c/[GA]/c/[GA]/c/ | F/c/F/c/F/B/ | [E_G]/=A/[EG]/c/[EF]/A/ | [DF]/B/[DF]/B/F/B/ | %19
 [_G=A]/c/[GA]/c/[GA]/c/ | F/c/F/c/F/B/ | E/_A/E/A/E/A/ | G/E/G/E/G/E/ | D/F/D/F/D/F/ | E3 | %25
!pp! (D/A/_C/F/B,/F/) | (E/G/C/E/B,/E/) | (D/A/_C/F/B,/D/) | (E/F/G/A/{Bc}!>!B/>=A/) | B3 | %30
 G/B/G/B/G/B/ | G/c/G/c/G/c/ | (e2 d | e3) | G/B/G/B/G/B/ | G/c/G/c/G/c/ | (e2 d | e3) | %38
!>(! [_G=A]/c/[GA]/c/[GA]/!>)!c/ | F/c/F/c/F/B/ | [E_G]/=A/[EG]/c/[EF]/A/ | [DF]/B/[DF]/B/F/B/ | %42
!>(! [F=A]/c/[FA]/c/[FA]/!>)!c/ | F/c/F/c/F/B/ | E/_A/E/A/E/A/ | G/E/G/E/G/E/ | D/F/D/F/D/F/ | z3 | %48
 (D/A/_C/F/B,/D/) | (E/G/C/E/B,/E/) | (D/A/_C/F/B,/D/) | (E/F/G/A/{Bc}!>!B/>=A/) | B3 | %53
 G/B/G/B/G/B/ | _G/_c/G/c/G/c/ | _d3 | e3 | f3 |!f!!>(! ((([=G_de-=g]3 | [Acea]3)))!>)! | z3 | %61
!pp! E/A/E/A/E/A/ | G/E/G/E/G/E/ | D/F/D/F/D/F/ | E3 | (F/G/A/=A/{Bc}B/>A/) | B3 | G/B/G/B/G/B/ | %68
 _G/_c/G/c/G/c/ | _d3 | e3 | f3 |!f!!>(! ((([=G_de-=g]3 | [Acea]3)))!>)! | z3 | z3 | %76
 (e/f/g/a/{bc'} !>!b/>=a/) | ([db]3 | e) x2 | (([DFB-]3 | ([EGB]2)) G | [G,B,E]3) |] %82
V:3
 EE>E | E3 | D3 | C3 | A/E/A/E/G/E/ | F/A/F/A/F/A/ | [EG] z z |[K:bass] EE>E | E3 | ([G,E]2 [B,F] | %10
 E3) | EE>E | E3 | ([G,E]2 [B,F] | E3) | EE>(E | D3) | (C=A,F,) | (B,2 D) | EE>(E | D3) | (C3 | %22
 B,3) | (A,3 | G,/)B,/G,/B,/G,/B,/ | (D,!>!_C,B,,) | (E,!>!=C,B,,) | (D,!>!_C,B,,) | [B,,E,]2 z | %29
 (E/G/E/G/E/G/) | EE>E | E3 | ([G,E]2 [B,F] | E3) | EE>E | E3 | ([G,E]2 [B,F] | E3) | EE>(E | D3) | %40
 (C=A,F,) | (B,2 D) | EE>(E | D3) | (C3 | B,3) | (A,3 | G,/)B,/G,/B,/G,/B,/ | (D,!>!_C,B,,) | %49
 (E,!>!=C,B,,) | (D,!>!_C,B,,) | [B,,E,]2 z | (E/G/E/G/E/G/) | EE>E | E3 | [_G,_D]3 | [_C,_G,_C]3 | %57
 [B,,F,B,]3 | (([E,,E,]3 | [A,,,A,,]3)) |"^" z3 | (C3 | B,3) | (A,3 | G,/)B,/G,/B,/G,/B,/ | %65
 A,/B,/A,/B,/A,/B,/ | G,/B,/G,/B,/G,/B,/ | EE>E | E3 | [_G,_D]3 | [_C,_G,_C]3 | [B,,F,B,]3 | %72
 (([E,,B,,E,]3 | [A,,,A,,]3)) |"^" z3 |[K:treble]!pp! E/A/E/A/E/A/ | G/E/G/E/G/E/ | %77
[K:bass] A,/B,/A,/B,/A,/B,/ | G,/B,/G,/B,/G,/B,/ | A,/B,/A,/B,/A,/B,/ | (G,/B,/G,/B,/E/B,/) | %81
 [E,,B,,E,]3 |] %82
V:4
 x3 | x3 | x3 | B/E/B/E/A/E/ | x3 | ed/c/d | e x2 | x3 | x3 | G/B/G/B/A/B/ | G/B/G/B/G/B/ | x3 | %12
 x3 | G/B/G/B/A/B/ | G/B/G/B/G/B/ | x3 | x3 | x3 | x3 | x3 | x3 | x3 | x3 | x3 | x3 | D_CB, | %26
 E=CB, | A,3 | G,2 z | x3 | x3 | x3 | G/B/G/B/A/B/ | G/B/G/B/G/B/ | x3 | x3 | G/B/G/B/A/B/ | %37
 G/B/G/B/G/B/ | x3 | x3 | x3 | x3 | x3 | x3 | x3 | x3 | x3 | x3 | D_CB, | E=CB, | A,3 | G,2 z | %52
 x3 | x3 | x3 | _c/_G/c/G/B/G/ | _G/E/"_cresc."G/E/G/E/ | B/F/B/F/B/F/ | x3 | x3 | x3 | x3 | x3 | %63
 x3 | x3 | D3 | E3 | x3 | x3 | _c/"_cresc."_G/c/G/B/G/ | _G/E/G/E/G/E/ | B/F/B/F/B/F/ | x3 | x3 | %74
 x3 | x3 | x3 | x3 | (E/F/G/A/ PB/>=A/) | x3 | x3 | x3 |] %82
V:5
 x3 | x3 | x3 | x3 | B,3 | B,3 | x3 |[K:bass] x3 | x3 | x3 | x3 | x3 | x3 | x3 | x3 | x3 | x3 | %17
 x3 | x3 | x3 | x3 | x3 | x3 | (B,,3 | E,,3-) | E,,3- | E,,3- | E,,3 | E,,2 x | x3 | x3 | x3 | x3 | %33
 x3 | x3 | x3 | x3 | x3 | x3 | x3 | x3 | x3 | x3 | x3 | x3 | x3 | (B,,3 | E,,3-) | E,,3- | E,,3- | %50
 E,,3 | E,,2 x | x3 | x3 | x3 | x3 | x3 | x3 | x3 | x3 | x3 | x3 | x3 | (B,,3 | E,,3) | E,3 | E,3 | %67
 x3 | x3 | x3 | x3 | x3 | x3 | x3 | x3 |[K:treble] (C3 | B,3) |[K:bass] B,,3 | E,3 | E,3 | E,3 | %81
 x3 |] %82
V:6
 x3 | x3 | x3 | x3 | x3 | B3- | B x2 | x3 | x3 | x3 | x3 | x3 | x3 | x3 | x3 | x3 | x3 | x3 | x3 | %19
 x3 | x3 | x3 | x3 | x3 | x3 | x3 | x3 | x3 | x3 | x3 | x3 | x3 | x3 | x3 | x3 | x3 | x3 | x3 | %38
 x3 | x3 | x3 | x3 | x3 | x3 | x3 | x3 | x3 | x3 | x3 | x3 | x3 | x3 | x3 | x3 | x3 | x3 | x3 | %57
 x3 | x3 | x3 | x3 | x3 | x3 | x3 | x3 | x3 | x3 | x3 | x3 | x3 | x3 | x3 | x3 | x3 | x3 | x3 | %76
 x3 | x3 | x3 | x3 | x3 | x3 |] %82
V:7
 x3 | x3 | x3 | x3 | x3 | x3 | x3 | x3 | x3 | x3 | x3 | x3 | x3 | x3 | x3 | x3 | x3 | x3 | x3 | %19
 x3 | x3 | x3 | x3 | x3 | x3 | A,3 | G,3 | x3 | x3 | x3 | x3 | x3 | x3 | x3 | x3 | x3 | x3 | x3 | %38
 x3 | x3 | x3 | x3 | x3 | x3 | x3 | x3 | x3 | x3 | A,3 | G,3 | x3 | x3 | x3 | x3 | x3 | x3 | %56
 _d2 _c | e2 =d | x3 | x3 | x3 | x3 | x3 | x3 | x3 | x3 | x3 | x3 | x3 | x3 | _d2 _c | e2 =d | x3 | %73
 x3 | x3 | x3 | x3 | x3 | x3 | x3 | x3 | x3 |] %82

